Catalina-light/actions/16/keyframe.svg

<svg version="1.1" viewBox="0 0 16 16" xmlns="http://www.w3.org/2000/svg">
    <defs>
        <style id="current-color-scheme" type="text/css">.ColorScheme-Text {
        color:#363636;
      }</style>
    </defs>
    <path style="fill:currentColor;fill-opacity:1;stroke:none" class="ColorScheme-Text" d="M 5,3 V 4 H 7 V 5.0507812 C 4.7620407,5.3045267 3,7.1975144 3,9.5 3,11.973437 5.0265633,14 7.5,14 9.973437,14 12,11.973437 12,9.5 12,8.4409052 11.614599,7.4790199 10.994141,6.7128906 L 11.75,5.9570312 l 0.396484,0.3964844 0.707032,-0.7070312 -1.5,-1.5 L 10.646484,4.8535156 11.042969,5.25 10.291016,6.0019531 C 9.644991,5.4911251 8.858964,5.1481728 8,5.0507812 V 4 h 2 V 3 Z M 7.5,6 C 9.432997,6 11,7.5670034 11,9.5 11,11.432997 9.432997,13 7.5,13 5.5670034,13 4,11.432997 4,9.5 4,7.5670034 5.5670034,6 7.5,6 Z"/>
</svg>

<svg version="1.1" viewBox="0 0 16 16" xmlns="http://www.w3.org/2000/svg">
<defs>
<style id="current-color-scheme" type="text/css">.ColorScheme-Text {
        color:#363636;
      }</style>
</defs>
<path class="ColorScheme-Text" d="m5 3v1h2v1.0508c-2.238 0.25375-4 2.1467-4 4.4492 0 2.4734 2.0266 4.5 4.5 4.5 2.4734 0 4.5-2.0266 4.5-4.5 0-1.0591-0.3854-2.021-1.0059-2.7871l0.75586-0.75586 0.39648 0.39648 0.70703-0.70703-1.5-1.5-0.70703 0.70703 0.39648 0.39648-0.75195 0.75195c-0.64602-0.51083-1.4321-0.85378-2.291-0.95117v-1.0508h2v-1zm2.5 3c1.933 0 3.5 1.567 3.5 3.5 0 1.933-1.567 3.5-3.5 3.5-1.933 0-3.5-1.567-3.5-3.5 0-1.933 1.567-3.5 3.5-3.5z" fill="#363636"/>
</svg>
